src/assets/filled/MaximizeCircle.svg

<svg width="24" height="24" viewBox="0 0 24 24"  xmlns="http://www.w3.org/2000/svg">
<path d="M21.6899 2.71C21.6099 2.53 21.4699 2.38 21.2799 2.3C21.1899 2.27 21.0999 2.25 20.9999 2.25H16.9999C16.5899 2.25 16.2499 2.59 16.2499 3C16.2499 3.41 16.5899 3.75 16.9999 3.75H19.1899L14.4699 8.47C14.1799 8.76 14.1799 9.24 14.4699 9.53C14.6199 9.68 14.8099 9.75 14.9999 9.75C15.1899 9.75 15.3799 9.68 15.5299 9.53L20.2499 4.81V7C20.2499 7.41 20.5899 7.75 20.9999 7.75C21.4099 7.75 21.7499 7.41 21.7499 7V3C21.7499 2.9 21.7299 2.81 21.6899 2.71Z" />
<path d="M8.47 14.4699L3.75 19.1899V16.9999C3.75 16.5899 3.41 16.2499 3 16.2499C2.59 16.2499 2.25 16.5899 2.25 16.9999V20.9999C2.25 21.0999 2.27 21.1899 2.31 21.2899C2.39 21.4699 2.53 21.6199 2.72 21.6999C2.8 21.7299 2.9 21.7499 3 21.7499H7C7.41 21.7499 7.75 21.4099 7.75 20.9999C7.75 20.5899 7.41 20.2499 7 20.2499H4.81L9.53 15.5299C9.82 15.2399 9.82 14.7599 9.53 14.4699C9.24 14.1799 8.76 14.1799 8.47 14.4699Z" />
<path d="M2.2 14.75C1.85 14.75 1.54 14.5 1.47 14.15C1.33 13.45 1.25 12.72 1.25 12C1.25 6.07 6.07 1.25 12 1.25C12.73 1.25 13.46 1.32 14.17 1.47C14.58 1.55 14.84 1.95 14.76 2.35C14.68 2.76 14.27 3.01 13.88 2.94C13.25 2.81 12.63 2.75 12 2.75C6.9 2.75 2.75 6.9 2.75 12C2.75 12.62 2.81 13.25 2.94 13.85C3.02 14.26 2.76 14.65 2.35 14.73C2.3 14.75 2.25 14.75 2.2 14.75Z" />
<path d="M12 22.7501C11.27 22.7501 10.54 22.6801 9.83003 22.5301C9.42003 22.4501 9.16003 22.0501 9.24003 21.6501C9.32003 21.2401 9.73003 20.9901 10.12 21.0601C10.73 21.1801 11.36 21.2501 11.99 21.2501C17.09 21.2501 21.24 17.1001 21.24 12.0001C21.24 11.3801 21.18 10.7601 21.06 10.1501C20.98 9.74006 21.24 9.35006 21.65 9.27006C22.06 9.19006 22.45 9.45006 22.53 9.86006C22.67 10.5601 22.74 11.2801 22.74 12.0001C22.75 17.9301 17.93 22.7501 12 22.7501Z" />
</svg>

<?xml version="1.0" encoding="UTF-8"?>
<svg width="24" height="24" viewBox="0 0 24 24" xmlns="http://www.w3.org/2000/svg">
 <path d="m21.69 2.71c-0.08-0.18-0.22-0.33-0.41-0.41-0.09-0.03-0.18-0.05-0.28-0.05h-4c-0.41 0-0.75 0.34-0.75 0.75s0.34 0.75 0.75 0.75h2.19l-4.72 4.72c-0.29 0.29-0.29 0.77 0 1.06 0.15 0.15 0.34 0.22 0.53 0.22s0.38-0.07 0.53-0.22l4.72-4.72v2.19c0 0.41 0.34 0.75 0.75 0.75s0.75-0.34 0.75-0.75v-4c0-0.1-0.02-0.19-0.06-0.29z"/>
 <path d="m8.47 14.47-4.72 4.72v-2.19c0-0.41-0.34-0.75-0.75-0.75s-0.75 0.34-0.75 0.75v4c0 0.1 0.02 0.19 0.06 0.29 0.08 0.18 0.22 0.33 0.41 0.41 0.08 0.03 0.18 0.05 0.28 0.05h4c0.41 0 0.75-0.34 0.75-0.75s-0.34-0.75-0.75-0.75h-2.19l4.72-4.72c0.29-0.29 0.29-0.77 0-1.06s-0.77-0.29-1.06 0z"/>
 <path d="m2.2 14.75c-0.35 0-0.66-0.25-0.73-0.6-0.14-0.7-0.22-1.43-0.22-2.15 0-5.93 4.82-10.75 10.75-10.75 0.73 0 1.46 0.07 2.17 0.22 0.41 0.08 0.67 0.48 0.59 0.88-0.08 0.41-0.49 0.66-0.88 0.59-0.63-0.13-1.25-0.19-1.88-0.19-5.1 0-9.25 4.15-9.25 9.25 0 0.62 0.06 1.25 0.19 1.85 0.08 0.41-0.18 0.8-0.59 0.88-0.05 0.02-0.1 0.02-0.15 0.02z"/>
 <path d="m12 22.75c-0.73 0-1.46-0.07-2.17-0.22-0.41-0.08-0.67-0.48-0.59-0.88 0.08-0.41 0.49-0.66 0.87997-0.59 0.61 0.12 1.24 0.19 1.87 0.19 5.1 0 9.25-4.15 9.25-9.25 0-0.62-0.06-1.24-0.18-1.85-0.08-0.41004 0.18-0.80004 0.59-0.88004s0.8 0.18 0.88 0.59c0.14 0.70004 0.21 1.42 0.21 2.14 0.01 5.93-4.81 10.75-10.74 10.75z"/>
</svg>
